X:1
T: Finella
C:
R:Strathspey
Q: 128
K:D
M:4/4
L:1/16
|:A2|D3E Fd3 Bd3 A3G|FD3 B,2E2 C4 A,3C|Dd3 c3C B,B3 A3D|EB3 A3G F4 A3A|
B3A B2c2 d2cB A2A2|BG3 E3D C4 E3E|F2D2 G2D2 A2d2 edcB|Ad3 e2a2 f4 d3c|
B3e e2B2 A3d d2D2|((3E2F2G2) ((3G2F2E2) F4 A3A|_Be3 e3B Ad3 d3=f|((3a2_b2a2) ((3g2=f2e2) f4 d3d|
eA3 a3g fd3 d'3a|bagf gfed c2e2 A2F2|D3E Fd3 Bd3 A3G|FD3 E3A F4 D2||
